src/raw/all-wheel-drive/icon_24.svg

<svg width="24" height="24" viewBox="0 0 24 24" fill="none" xmlns="http://www.w3.org/2000/svg">
<path d="M1 2C1 1.44772 1.44772 1 2 1H4C4.55228 1 5 1.44772 5 2V7C5 7.55228 4.55228 8 4 8H2C1.44772 8 1 7.55228 1 7V2Z" stroke="#71717A" stroke-width="1.5" stroke-linecap="round" stroke-linejoin="round"/>
<path d="M1 17C1 16.4477 1.44772 16 2 16H4C4.55228 16 5 16.4477 5 17V22C5 22.5523 4.55228 23 4 23H2C1.44772 23 1 22.5523 1 22V17Z" stroke="#71717A" stroke-width="1.5" stroke-linecap="round" stroke-linejoin="round"/>
<path d="M19 2C19 1.44772 19.4477 1 20 1H22C22.5523 1 23 1.44772 23 2V7C23 7.55228 22.5523 8 22 8H20C19.4477 8 19 7.55228 19 7V2Z" stroke="#71717A" stroke-width="1.5" stroke-linecap="round" stroke-linejoin="round"/>
<path d="M19 17C19 16.4477 19.4477 16 20 16H22C22.5523 16 23 16.4477 23 17V22C23 22.5523 22.5523 23 22 23H20C19.4477 23 19 22.5523 19 22V17Z" stroke="#71717A" stroke-width="1.5" stroke-linecap="round" stroke-linejoin="round"/>
<path d="M19 19.5H5" stroke="#71717A" stroke-width="1.5" stroke-linecap="round" stroke-linejoin="round"/>
<path d="M10 2L14 2" stroke="#71717A" stroke-width="1.5" stroke-linecap="round" stroke-linejoin="round"/>
<path d="M10 22H14" stroke="#71717A" stroke-width="1.5" stroke-linecap="round" stroke-linejoin="round"/>
<path d="M12 4.5V19.5" stroke="#71717A" stroke-width="1.5" stroke-linecap="round" stroke-linejoin="round"/>
<path d="M19 4.5L5 4.5" stroke="#71717A" stroke-width="1.5" stroke-linecap="round" stroke-linejoin="round"/>
</svg>

<svg xmlns="http://www.w3.org/2000/svg" width="24" height="24" fill="none" viewBox="0 0 24 24">
  <path stroke="#3F3F46" stroke-linecap="round" stroke-linejoin="round" stroke-width="1.5"
    d="M1 2a1 1 0 0 1 1-1h2a1 1 0 0 1 1 1v5a1 1 0 0 1-1 1H2a1 1 0 0 1-1-1V2ZM1 17a1 1 0 0 1 1-1h2a1 1 0 0 1 1 1v5a1 1 0 0 1-1 1H2a1 1 0 0 1-1-1v-5ZM19 2a1 1 0 0 1 1-1h2a1 1 0 0 1 1 1v5a1 1 0 0 1-1 1h-2a1 1 0 0 1-1-1V2ZM19 17a1 1 0 0 1 1-1h2a1 1 0 0 1 1 1v5a1 1 0 0 1-1 1h-2a1 1 0 0 1-1-1v-5ZM19 19.5H5M10 2h4M10 22h4M12 4.5v15M19 4.5H5" />
</svg>
